IMB-X-Files/The-Ambassadors-Assets/660d407c3c4a8067df444e6e_Logo-1.svg

<svg fill="none" height="59" viewBox="0 0 44 59" width="44" xmlns="http://www.w3.org/2000/svg" xmlns:xlink="http://www.w3.org/1999/xlink"><clipPath id="a"><path d="m.352173 0h43.2393v58.2068h-43.2393z"/></clipPath><g clip-path="url(#a)"><path d="m34.388 9.14679h6.5987l-14.4131 16.94091 17.0179 22.9723h-13.3712l-10.4191-13.9253-11.98199 13.9253h-6.59878l15.45507-18.094-16.323327-21.81921h13.718527l9.464 12.77221zm-2.3443 35.83321h3.6466l-23.6166-32.0193h-3.99402z" fill="#fff"/></g></svg>

<svg width="44" height="59" viewBox="0 0 44 59" fill="none" xmlns="http://www.w3.org/2000/svg">
    <g clip-path="url(#clip0_2534_12090)">
        <path
            d="M34.388 9.14679H40.9867L26.5736 26.0877L43.5915 49.06H30.2203L19.8012 35.1347L7.81921 49.06H1.22043L16.6755 30.966L0.352173 9.14679H14.0707L23.5347 21.919L34.388 9.14679ZM32.0437 44.98H35.6903L12.0737 12.9607H8.07968L32.0437 44.98Z"
            fill="white" />
    </g>
    <defs>
        <clipPath id="clip0_2534_12090">
            <rect width="43.2393" height="58.2068" fill="white" transform="translate(0.352173)" />
        </clipPath>
    </defs>
</svg>
